X:3116
T:Cloon Reel, The
T:Humours of Toomagh, The
R:reel
H:Also played in D, #680
D:Seamus McGuire & John Lee: The Missing Reel
D:Molloy, Peoples, Brady
Z:id:hn-reel-481
M:C|
K:C
d|:cAGE ~G3A|GEcE ~G3d|cAGE ~G3A|GEcE EDDd|
cAGE ~G3A|GEcE ~G3A|c2ec ~g3e|1 dcAG EDDd:|2 dcAG EDD2||
|:c2ec gcec|~g3a gede|c2ec gceg|gedc AGEG|
c2ec gcec|~g3a gedg|gedc d2ed|1 cAGE ED~D2:|2 cAGE EDD||
